public/images/hashed/f8df92494e15d25371bed69607f29792.svg

<?xml version="1.0" encoding="UTF-8"?>
<svg width="80px" height="80px" viewBox="0 0 80 80" version="1.1" xmlns="http://www.w3.org/2000/svg" xmlns:xlink="http://www.w3.org/1999/xlink">
    <!-- Generator: Sketch 64 (93537) - https://sketch.com -->
    <title>Icon-Architecture/64/Arch_AWS-X-Ray_64</title>
    <desc>Created with Sketch.</desc>
    <defs>
        <linearGradient x1="0%" y1="100%" x2="100%" y2="0%" id="linearGradient-1">
            <stop stop-color="#2E27AD" offset="0%"></stop>
            <stop stop-color="#527FFF" offset="100%"></stop>
        </linearGradient>
    </defs>
    <g id="Icon-Architecture/64/Arch_AWS-X-Ray_64" stroke="none" stroke-width="1" fill="none" fill-rule="evenodd">
        <g id="Icon-Architecture-BG/64/Developer-Tools" fill="url(#linearGradient-1)">
            <rect id="Rectangle" x="0" y="0" width="80" height="80"></rect>
        </g>
        <path d="M47.5,42.2002589 L45.5,42.2002589 L45.5,56.0834412 L41.5,56.0834412 L41.5,46.1668824 L39.5,46.1668824 L39.5,56.0834412 L35.5,56.0834412 L35.5,49.1418501 L33.5,49.1418501 L33.5,56.0834412 L31.5,56.0834412 L31.5,58.066753 L49.5,58.066753 L49.5,56.0834412 L47.5,56.0834412 L47.5,42.2002589 Z M55.5,49.637678 C55.5,41.7093893 48.995,35.2586678 41,35.2586678 C33.005,35.2586678 26.5,41.7093893 26.5,49.637678 C26.5,57.5659668 33.005,64.0166882 41,64.0166882 C48.995,64.0166882 55.5,57.5659668 55.5,49.637678 L55.5,49.637678 Z M57.5,49.637678 C57.5,58.6597632 50.098,66 41,66 C31.902,66 24.5,58.6597632 24.5,49.637678 C24.5,40.6155928 31.902,33.275356 41,33.275356 C50.098,33.275356 57.5,40.6155928 57.5,49.637678 L57.5,49.637678 Z M68,38.701697 C68,44.3590938 64.868,48.0381371 59.409,48.7937789 L59.132,46.8293086 C62.266,46.395955 66,44.6337825 66,38.701697 C66,33.1335492 61.753,31.1194962 58.191,30.4104622 C57.744,30.3222048 57.415,29.9453756 57.39,29.4941722 C57.156,25.4214415 54.745,23.5977863 52.458,23.5977863 C51.021,23.5977863 49.681,24.2691374 48.782,25.4402829 C48.562,25.7278632 48.197,25.8726449 47.839,25.8200871 C47.479,25.7665377 47.175,25.523582 47.049,25.1834441 C46.239,23.0146927 45.039,21.1236049 43.579,19.7144619 C39.741,16.002694 34.489,14.9941799 29.53,17.0191412 C25.413,18.694048 22.188,23.5144872 22.188,27.9928052 C22.188,28.4955747 22.219,28.9963609 22.279,29.4812806 C22.342,29.9790919 22.019,30.4451702 21.527,30.5651605 C19.09,31.1641207 15,33.007609 15,38.6253395 C15,38.8365622 15.011,39.0279518 15.021,39.2292579 C15.204,42.5205638 18.068,45.5441226 21.987,46.5804029 L21.472,48.4962821 C16.728,47.2418374 13.254,43.4755284 13.024,39.3363568 C13.011,39.0983594 13,38.8742451 13,38.6253395 C13,32.1349518 17.538,29.728203 20.216,28.8743873 C20.197,28.5828404 20.188,28.2883186 20.188,27.9928052 C20.188,22.6814963 23.878,17.1758229 28.77,15.1845779 C34.488,12.8482366 40.548,14.0104573 44.975,18.2944107 C46.313,19.5855466 47.456,21.2188039 48.326,23.0732004 C49.492,22.1331106 50.936,21.6144746 52.458,21.6144746 C55.53,21.6144746 58.753,23.7911592 59.32,28.6274649 C64.926,29.9771086 68,33.5312033 68,38.701697 L68,38.701697 Z" id="AWS-X-Ray_Icon_64_Squid" fill="#FFFFFF"></path>
    </g>
</svg>

<svg xmlns="http://www.w3.org/2000/svg" width="80" height="80"><defs><linearGradient id="a" x1="0%" x2="100%" y1="100%" y2="0%"><stop offset="0%" stop-color="#2E27AD"/><stop offset="100%" stop-color="#527FFF"/></linearGradient></defs><g fill="none" fill-rule="evenodd"><path fill="url(#a)" d="M0 0h80v80H0z"/><path fill="#FFF" d="M47.5 42.2h-2v13.883h-4v-9.916h-2v9.916h-4v-6.941h-2v6.941h-2v1.984h18v-1.984h-2V42.2Zm8 7.438c0-7.929-6.505-14.38-14.5-14.38s-14.5 6.451-14.5 14.38c0 7.928 6.505 14.379 14.5 14.379s14.5-6.451 14.5-14.38Zm2 0C57.5 58.66 50.098 66 41 66c-9.098 0-16.5-7.34-16.5-16.362 0-9.022 7.402-16.363 16.5-16.363 9.098 0 16.5 7.34 16.5 16.363ZM68 38.702c0 5.657-3.132 9.336-8.591 10.092l-.277-1.965C62.266 46.396 66 44.634 66 38.702c0-5.568-4.247-7.583-7.809-8.292a.991.991 0 0 1-.801-.916c-.234-4.073-2.645-5.896-4.932-5.896-1.437 0-2.777.671-3.676 1.842-.22.288-.585.433-.943.38a.997.997 0 0 1-.79-.637c-.81-2.168-2.01-4.06-3.47-5.469-3.838-3.711-9.09-4.72-14.049-2.695-4.117 1.675-7.342 6.495-7.342 10.974 0 .503.031 1.003.091 1.488a.99.99 0 0 1-.752 1.084c-2.437.6-6.527 2.443-6.527 8.06 0 .212.011.403.021.604.183 3.292 3.047 6.315 6.966 7.351l-.515 1.916c-4.744-1.254-8.218-5.02-8.448-9.16a12.628 12.628 0 0 1-.024-.71c0-6.491 4.538-8.898 7.216-9.752a13.569 13.569 0 0 1-.028-.881c0-5.312 3.69-10.817 8.582-12.808 5.718-2.337 11.778-1.175 16.205 3.11 1.338 1.29 2.481 2.924 3.351 4.778a6.557 6.557 0 0 1 4.132-1.459c3.072 0 6.295 2.177 6.862 7.013 5.606 1.35 8.68 4.904 8.68 10.075Z"/></g></svg>
